wp-content/themes/sd-accesslasers/public/images/product/icons/manual.svg

<?xml version="1.0" encoding="UTF-8"?>
<svg width="20px" height="20px" viewBox="0 0 20 20" version="1.1" xmlns="http://www.w3.org/2000/svg" xmlns:xlink="http://www.w3.org/1999/xlink">
    <!-- Generator: Sketch 55 (78076) - https://sketchapp.com -->
    <title>Product manual</title>
    <desc>Created with Sketch.</desc>
    <g id="Product" stroke="none" stroke-width="1" fill="none" fill-rule="evenodd">
        <g id="AL_Product-Copy" transform="translate(-1137.000000, -776.000000)" fill="currentColor" fill-rule="nonzero">
            <g id="Hero" transform="translate(149.000000, 28.000000)">
                <g id="Product" transform="translate(0.000000, 104.000000)">
                    <g id="Content" transform="translate(975.000000, 122.000000)">
                        <g id="3" transform="translate(0.000000, 458.000000)">
                            <g id="Downloads-Copy" transform="translate(13.000000, 64.000000)">
                                <g id="1" transform="translate(2.000000, 0.000000)">
                                    <g id="open-book" transform="translate(0.000000, 3.000000)">
                                        <path d="M15.375,5.94690265 C15.7201875,5.94690265 16,5.66956637 16,5.32743363 L16,0.619469027 C16,0.424924779 15.9078125,0.241685841 15.7510312,0.124668142 C15.5942187,0.00761946903 15.3910625,-0.0296415929 15.2024375,0.0240663717 C14.4785312,0.230132743 13.5558437,0.171995575 12.387625,0.098340708 C11.6561562,0.0522522124 10.8270937,-1.19000189e-13 9.875,-1.19000189e-13 C9.12884375,-1.19000189e-13 8.45846875,0.326088496 8,0.841517699 C7.54153125,0.326088496 6.87115625,-1.19000189e-13 6.125,-1.19000189e-13 C5.17290625,-1.19000189e-13 4.34384375,0.0522522124 3.612375,0.0983716814 C2.44421875,0.171995575 1.52146875,0.230132743 0.7975625,0.0240973451 C0.608875,-0.0296106195 0.40578125,0.00765044248 0.24896875,0.124699115 C0.0921875,0.241716814 -5.2581569e-13,0.424955752 -5.2581569e-13,0.619469027 L-5.2581569e-13,10.8963363 C-0.00171875,11.559385 0.25753125,12.1830664 0.7299375,12.652531 C1.20240625,13.1219956 1.831,13.380531 2.5,13.380531 L7.375,13.380531 C7.375,13.7226637 7.6548125,14 8,14 C8.3451875,14 8.625,13.7226637 8.625,13.380531 L13.5,13.380531 C14.8785,13.380531 16,12.2689558 16,10.9026549 L16,8.42477876 C16,8.08264602 15.7201875,7.80530973 15.375,7.80530973 C15.0298125,7.80530973 14.75,8.08264602 14.75,8.42477876 C14.75,9.1079292 14.18925,9.66371681 13.5,9.66371681 L8.9375,9.66371681 C8.8305,9.66371681 8.726,9.6744646 8.625,9.69487611 L8.625,2.47787611 C8.625,1.79472566 9.18575,1.23893805 9.875,1.23893805 C10.787375,1.23893805 11.5954062,1.28988938 12.3082812,1.33480088 C13.2405937,1.39355752 14.031125,1.44336283 14.75,1.3660531 L14.75,5.32743363 C14.75,5.66956637 15.0298125,5.94690265 15.375,5.94690265 Z M7.375,12.1415929 L2.5,12.1415929 C2.1655,12.1415929 1.8511875,12.0123097 1.61496875,11.7775929 C1.37875,11.5428761 1.24915625,11.2310354 1.25,10.8979159 L1.24999591,10.5692876 C1.61803125,10.7808673 2.0448125,10.9026549 2.5,10.9026549 L7.0625,10.9026549 C7.2348125,10.9026549 7.375,11.0416018 7.375,11.2123894 L7.375,12.1415929 Z M7.375,9.69487611 C7.274,9.6744646 7.1695,9.66371681 7.0625,9.66371681 L2.5,9.66371681 C1.81075,9.66371681 1.25,9.1079292 1.25,8.42477876 L1.25,1.36608407 C1.96884375,1.44336283 2.7594375,1.39355752 3.69171875,1.33480088 C4.404625,1.28988938 5.212625,1.23893805 6.125,1.23893805 C6.81425,1.23893805 7.375,1.79472566 7.375,2.47787611 L7.375,9.69487611 Z M8.9375,10.9026549 L13.5,10.9026549 C13.9551875,10.9026549 14.3819687,10.7808673 14.75,10.5692876 L14.75,10.9026549 C14.75,11.5858053 14.18925,12.1415929 13.5,12.1415929 L8.625,12.1415929 L8.625,11.2123894 C8.625,11.0416018 8.76521875,10.9026549 8.9375,10.9026549 Z" id="Shape"></path>
                                    </g>
                                </g>
                            </g>
                        </g>
                    </g>
                </g>
            </g>
        </g>
    </g>
</svg>

<svg width="20" height="20" viewBox="0 0 20 20" version="1.1" xmlns="http://www.w3.org/2000/svg"><g id="Product" stroke="none" stroke-width="1" fill="none" fill-rule="evenodd"><g id="AL_Product-Copy" transform="translate(-1137 -776)" fill="currentColor" fill-rule="nonzero"><g id="Hero" transform="translate(149 28)"><g id="Product" transform="translate(0 104)"><g id="Content" transform="translate(975 122)"><g id="3" transform="translate(0 458)"><g id="Downloads-Copy" transform="translate(13 64)"><g id="1" transform="translate(2)"><g id="open-book" transform="translate(0 3)"><path d="M15.375 5.947a.622.622 0 0 0 .625-.62V.62a.618.618 0 0 0-.249-.494.63.63 0 0 0-.549-.1c-.723.205-1.646.147-2.814.073A37.725 37.725 0 0 0 9.875 0C9.129 0 8.458.326 8 .842A2.504 2.504 0 0 0 6.125 0c-.952 0-1.781.052-2.513.098C2.444.172 1.522.23.798.024a.63.63 0 0 0-.549.1A.618.618 0 0 0 0 .62v10.277a2.45 2.45 0 0 0 .73 1.757 2.496 2.496 0 0 0 1.77.728h4.875c0 .342.28.619.625.619a.622.622 0 0 0 .625-.62H13.5c1.379 0 2.5-1.111 2.5-2.477V8.425c0-.342-.28-.62-.625-.62a.622.622 0 0 0-.625.62c0 .683-.56 1.239-1.25 1.239H8.937c-.106 0-.211.01-.312.03V2.479c0-.683.56-1.24 1.25-1.24.912 0 1.72.052 2.433.097.933.059 1.723.108 2.442.031v3.961c0 .343.28.62.625.62zm-8 6.195H2.5a1.247 1.247 0 0 1-1.25-1.244v-.329a2.5 2.5 0 0 0 1.25.334h4.563c.172 0 .312.139.312.31v.929zm0-2.447a1.576 1.576 0 0 0-.313-.031H2.5c-.69 0-1.25-.556-1.25-1.24V1.367c.719.077 1.51.028 2.442-.031.713-.045 1.52-.096 2.433-.096.69 0 1.25.556 1.25 1.239v7.217zm1.563 1.208H13.5a2.5 2.5 0 0 0 1.25-.334v.334c0 .683-.56 1.239-1.25 1.239H8.625v-.93c0-.17.14-.31.313-.31z" id="Shape"/></g></g></g></g></g></g></g></g></g></svg>
